X:1
T:Praeludium
T:Praeludium
T:(Prelude) BWV 937
T:Johann Sebastian Bach
C:Johann Sebastian Bach
%%score 1 2 3
L:1/8
M:4/4
K:E
V:1 treble 
V:2 treble 
V:3 bass 
V:1
 z BeB cAFB | EF/G/ AG FBAG | F/B/^A/B/ D/B/A/B/ E/B/c/B/ A/G/F/E/ | %3
 D/B/^A/B/ G/B/F/B/ E/B/D/B/ C/B/B,/B/ | ^A cfc e^BGf | e/=a/g/a/ f/a/g/a/ d/a/=b/a/ g/f/e/d/ | %6
 e BeB cAFB | EF/G/ AG FBAG | FE/F/ GF Ee d/c/d/e/ | f/e/g/f/ e/d/Mc/B/ B4 :: %10
 z/ F/E/F/ D/F/B/F/ =A/F/E/F/ D/F/A/F/ | GF/G/ EB GBEG | Ac a2- a/B/A/B/ g2- | gcfc =dBG^e | %14
 f/c/B/c/ A/c/f/^d/ =e/c/B/c/ ^A/c/e/c/ | dc/d/ Bf dfBd | e/B/=A/B/ G/B/=d/B/ c/A/G/A/ F/A/c/A/ | %17
 B/G/F/G/ E/G/B/G/ A/F/E/F/ ^D/F/A/F/ | GF/G/ A/G/F/E/ cd e2 | e2 d2 e4 :| %20
V:2
 x8 | x8 | x8 | x8 | x8 | x8 | x8 | x8 | x8 | x4 z/ F/D/B,/- B,2 :: x8 | x8 | x8 | x8 | x8 | x8 | %16
 x8 | x8 | x4 x2 eB | cA FB G4 :| %20
V:3
 E,/E/D/E/ G,/E/D/E/ A,/E/F/E/ D/C/B,/A,/ | G,/E/D/E/ C/E/B,/E/ A,/E/G,/E/ F,/E/E,/E/ | %2
 D F,B,F, G,E,C,F, | B,,C,/D,/ E,D, C,F,E,D, | %4
 C,/F,/E,/F,/ D,/F,/E,/F,/ ^B,,/F,/G,/F,/ E,/D,/C,/B,,/ | C, E,=A,E, F,D,=B,,A, | %6
 G,/E,/D,/E,/ C,/E,/D,/E,/ A,,/E,/F,/E,/ D,/C,/B,,/A,,/ | %7
 G,,/E,/D,/E,/ C,/E,/B,,/E,/ A,,/E,/G,,/E,/ F,,/E,/E,,/E,/ | %8
 B,,/D,/C,/D,/ E,/B,,/F,/B,,/ G,/B,,/^A,/B,,/ B,G, | D,B,,F,F,, B,,2 B,,,2 :: B,,F,B,F, D,F,B,,D, | %11
 E,/B,/=A,/B,/ G,/B,/E/C/ =D/B,/A,/B,/ G,/B,/D/B,/ | %12
 C/A,/G,/A,/ F,/A,/C/A,/ B,/G,/F,/G,/ ^E,/G,/B,/G,/ | %13
 A,/F,/^E,/F,/ =D,/F,/E,/F,/ B,,/F,/E,/F,/ C,/C/B,/C/ | A, CFC ^A,CF,A, | %15
 B,/F,/=E,/F,/ ^D,/F,/B,/G,/ =A,/F,/E,/F,/ D,/F,/A,/F,/ | G, B,EG, A,C^DF, | G,B,CE, F,A,B,D, | %18
 E,/B,/E/D/ C/B,/A,/G,/ A,/G,/F,/A,/ G,/E/D/E/ | A,/E/D/E/ B,B,, E,/E,,/G,,/B,,/ E,2 :| %20

